public/images/frog/frog-evaluating-done.svg

<svg width="278" height="362" viewBox="0 0 278 362" fill="none" xmlns="http://www.w3.org/2000/svg">
<ellipse cx="139.5" cy="347.5" rx="70.5" ry="14.5" fill="black" fill-opacity="0.3"/>
<mask id="mask0_2886_2604" style="mask-type:alpha" maskUnits="userSpaceOnUse" x="0" y="0" width="278" height="347">
<rect width="278" height="347" fill="#D9D9D9"/>
</mask>
<g mask="url(#mask0_2886_2604)">
<path d="M43.5242 71.1914L137.175 82.1891V165.59L43.5242 155.956L43.5242 71.1914Z" fill="#FFEC00"/>
<path d="M52.9763 63.9302L137.176 75.7738V165.591L52.9763 155.215L52.9763 63.9302Z" fill="#FFEC00"/>
<path d="M64.748 55.9424L137.175 68.7166V165.59L64.748 150.456L64.748 55.9424Z" fill="#F5F6F9"/>
<path d="M230.826 71.1914L137.175 82.1891V165.59L230.826 155.956L230.826 71.1914Z" fill="#FFEC00"/>
<path d="M221.374 63.9302L137.174 75.7738V165.591L221.374 155.215L221.374 63.9302Z" fill="#FFEC00"/>
<path d="M209.602 55.9424L137.176 68.7166V165.59L209.602 150.456L209.602 55.9424Z" fill="#F5F6F9"/>
<path d="M137.256 76.6299L137.256 152.379" stroke="white" stroke-width="2" stroke-linecap="round"/>
<path fill-rule="evenodd" clip-rule="evenodd" d="M80.4891 99.5465C82.1548 100.726 83.6987 101.338 84.8608 101.263C89.5624 100.963 100.551 88.6345 100.573 74.2912C100.595 59.948 93.5966 48.7689 84.9413 49.322C79.9294 49.6423 75.4609 53.8262 72.5827 60.0767C68.7623 56.8917 64.5078 55.503 60.5923 56.6195C54.2532 58.427 50.6139 66.2847 50.8792 75.9047C46.1929 73.6422 41.5596 73.2129 37.9626 75.1392C30.3148 79.2349 30.2481 92.4287 37.8135 104.608C45.379 116.788 61.2052 121.47 65.3595 119.246C67.7739 117.952 69.9877 112.322 69.9332 105.442C71.8783 106.19 73.5507 106.432 74.6687 106.114C76.4458 105.607 78.6678 103.157 80.4891 99.5465Z" fill="#FF8BCA"/>
<path fill-rule="evenodd" clip-rule="evenodd" d="M144.907 62.5514C144.593 62.353 144.27 62.1302 143.943 61.884C142.241 68.0525 138.829 72.5242 136.34 73.065C132.058 73.9955 119.092 65.7701 115.423 52.9453C111.754 40.1204 115.171 28.3352 123.054 26.6222C126.761 25.8166 130.797 27.3825 134.413 30.6017C136.623 21.9287 141.878 15.8281 148.008 15.8281C155.075 15.8281 160.978 23.9343 162.395 34.7428C163.9 34.376 165.399 34.3286 166.849 34.6435C174.732 36.3565 178.148 48.1417 174.479 60.9665C170.81 73.7913 157.844 82.0167 153.562 81.0862C150.162 80.3473 145.036 72.2691 144.907 62.5514Z" fill="#78D9FF"/>
<path d="M188.832 34.8215C185.831 45.3114 189.59 55.1605 192.243 55.7371C194.897 56.3137 203.521 49.1553 206.522 38.6655C209.523 28.1756 207.996 18.8114 203.111 17.7499C198.226 16.6884 191.833 24.3316 188.832 34.8215Z" fill="#FB7A35"/>
<path d="M93.5046 23.5158C96.5055 34.0057 92.7468 43.8548 90.0934 44.4314C87.4399 45.008 78.8157 37.8497 75.8148 27.3598C72.8138 16.8699 74.3411 7.50571 79.226 6.44424C84.1109 5.38276 90.5036 13.026 93.5046 23.5158Z" fill="#FB7A35"/>
<path d="M20.8934 121.144C28.1443 126.235 31.3047 132.609 30.14 133.572C28.9753 134.535 20.3797 132.655 13.1288 127.564C5.87799 122.474 1.73816 116.909 3.88229 115.137C6.02642 113.364 13.6426 116.053 20.8934 121.144Z" fill="#78D9FF"/>
<path d="M254.231 137.266C246.98 142.357 243.82 148.731 244.985 149.694C246.149 150.657 254.745 148.777 261.996 143.686C269.247 138.596 273.387 133.032 271.242 131.259C269.098 129.486 261.482 132.175 254.231 137.266Z" fill="#78D9FF"/>
<path d="M58.7164 11.5509C63.1995 17.9305 63.2001 24.6516 61.6428 25.3157C60.0855 25.9797 52.8175 22.3576 48.3344 15.978C43.8513 9.59842 42.5411 3.43572 45.408 2.21321C48.275 0.990708 54.2333 5.17133 58.7164 11.5509Z" fill="#FF8BCA"/>
<path d="M227.938 30.4809C222.665 36.5796 221.816 43.2763 223.284 44.0274C224.752 44.7786 232.451 41.5873 237.723 35.4885C242.995 29.3898 245.079 23.3248 242.377 21.942C239.674 20.5591 233.21 24.3821 227.938 30.4809Z" fill="#FF8BCA"/>
<path d="M5.30762 97.769L44.8919 127.716" stroke="#FB7A35" stroke-width="2" stroke-linecap="round"/>
<path d="M278 111.862L230.499 137.405" stroke="#FB7A35" stroke-width="2" stroke-linecap="round"/>
<path d="M98.7747 19.7461L125.76 102.886" stroke="#78D9FF" stroke-width="2" stroke-linecap="round"/>
<path d="M216.17 38.4395L175.953 104.012" stroke="#FF8BCA" stroke-width="2" stroke-linecap="round"/>
<path fill-rule="evenodd" clip-rule="evenodd" d="M214.73 102.992C212.79 104.065 211.12 104.628 210.005 104.571C205.494 104.341 198.049 93.3615 201.847 80.4805C205.646 67.5995 215.457 57.5008 223.761 57.9245C228.569 58.1698 231.818 61.8894 232.963 67.4783C237.542 64.5861 242.065 63.3031 245.591 64.2727C251.299 65.8425 252.76 72.8682 249.939 81.5096C255.116 79.4386 259.754 79.0142 262.753 80.7136C269.13 84.3273 265.681 96.1756 255.05 107.178C244.419 118.18 227.719 122.518 224.255 120.555C222.242 119.415 221.58 114.377 223.465 108.198C221.367 108.886 219.671 109.117 218.664 108.841C217.064 108.4 215.547 106.219 214.73 102.992Z" fill="#FB7A35"/>
<path d="M129.389 341.902C127.128 342.264 124.915 342.688 122.706 343.122C119.469 343.761 116.318 344.728 113.12 345.52C107.122 346.997 101.039 347.207 94.9131 346.754C93.7089 346.663 92.5332 346.382 91.4908 345.729C89.901 344.743 89.7534 343.222 91.1195 341.94C91.9096 341.197 92.8949 340.768 93.8183 340.258C93.7612 340.034 93.5803 340.019 93.4375 339.962C88.1684 337.732 85.2886 333.614 84.3795 328.095C82.8801 318.982 88.1493 311.818 93.7993 308.954C94.1753 308.763 94.3324 308.492 94.3848 308.082C95.1321 302.577 96.9456 297.439 99.7587 292.654C99.9633 292.306 100.039 292.082 99.6159 291.82C91.2099 286.563 84.9412 279.228 79.6054 271.011C75.7784 265.12 72.5369 258.924 70.4093 252.195C68.353 245.694 67.5771 239.026 68.0484 232.229C68.2531 229.265 67.4772 226.648 65.8731 224.213C65.5209 223.679 65.1925 223.126 64.8926 222.559C63.1552 219.294 65.1306 215.596 68.2055 214.533C71.7087 213.322 75.2263 213.394 78.6677 214.852C80.029 215.429 81.0857 216.387 81.971 217.569C83.5418 219.656 84.7698 221.92 85.698 224.36C86.0931 225.404 86.5595 226.419 86.9832 227.435C87.3211 227.397 87.4211 227.153 87.5686 226.977C91.8858 221.83 97.0741 217.759 102.929 214.528C104.104 213.88 104.899 213.055 105.466 211.811C107.765 206.774 110.164 201.779 113.443 197.28C115.642 194.263 118.217 191.641 121.602 189.959C124.134 188.701 126.809 188.143 129.598 188.915C132.978 189.849 134.896 192.251 135.853 195.516C136.124 196.431 136.319 197.37 136.562 198.342C137.028 198.161 136.952 197.761 137.019 197.456C137.509 195.092 138.233 192.857 140.018 191.098C142.164 188.982 144.754 188.295 147.667 188.696C152.208 189.32 155.502 192.018 158.386 195.335C161.523 198.943 163.684 203.166 165.84 207.384C166.616 208.904 167.373 210.448 168.015 212.031C168.472 213.146 169.215 213.846 170.248 214.409C174.251 216.597 177.968 219.194 181.319 222.297C182.99 223.841 184.565 225.476 186.008 227.239C186.15 227.411 186.246 227.749 186.522 227.663C186.736 227.592 186.726 227.263 186.822 227.049C188.192 223.927 189.306 220.695 191.315 217.864C193.005 215.486 195.189 214.094 198.007 213.632C200.268 213.26 202.539 213.289 204.752 213.927C207.422 214.7 209.093 216.406 209.493 219.256C209.674 220.533 209.198 221.615 208.626 222.683C208.089 223.693 207.527 224.699 206.918 225.671C205.866 227.354 205.613 229.222 205.718 231.128C205.937 235.122 205.837 239.097 205.314 243.063C204.514 249.116 202.634 254.825 199.983 260.297C195.708 269.124 190.349 277.193 183.385 284.142C181.091 286.434 178.625 288.517 175.94 290.342C175.507 290.638 175.393 290.833 175.712 291.334C178.968 296.462 181.091 302.019 181.876 308.058C181.952 308.635 182.3 308.859 182.738 309.092C191.063 313.534 194.585 324.525 190.372 332.947C188.768 336.154 186.35 338.513 183.023 339.896C182.852 339.967 182.69 340.053 182.523 340.139C182.504 340.148 182.5 340.186 182.461 340.258C183.252 340.725 184.108 341.087 184.837 341.669C185.346 342.078 185.793 342.536 185.998 343.17C186.298 344.09 185.879 345.038 184.875 345.682C183.399 346.625 181.714 346.787 180.034 346.906C174.731 347.273 169.576 346.549 164.507 344.952C160.604 343.723 156.625 342.793 152.531 342.393C150.646 342.212 148.771 342.021 146.81 341.912C146.548 341.645 146.72 341.445 146.829 341.235C148.919 337.246 149.975 332.961 150.508 328.509C150.846 325.683 150.913 322.842 150.775 320.016C150.585 316.132 149.871 312.314 148.757 308.577C148.01 306.071 146.972 303.716 145.382 301.614C143.331 298.902 140.622 297.863 137.3 298.278C137.219 298.287 137.143 298.307 137.062 298.307C134.196 298.311 132.202 299.836 130.588 302.024C128.589 304.731 127.647 307.872 126.833 311.08C125.6 315.951 125.272 320.912 125.529 325.898C125.79 330.959 126.857 335.863 129.041 340.477C129.256 340.901 129.498 341.33 129.389 341.902Z" fill="#00CF4B"/>
<path d="M129.408 341.984C128.699 340.301 127.947 338.666 127.395 336.97C124.786 328.915 124.591 320.741 126.305 312.486C126.957 309.331 127.804 306.247 129.399 303.416C130.312 301.786 131.483 300.385 132.968 299.246C133.621 298.746 134.373 298.479 135.163 298.321C136.9 297.974 138.652 297.845 140.418 298.107C142.526 298.422 144.083 299.632 145.387 301.224C147.181 303.416 148.271 305.966 149.043 308.659C151.489 317.248 151.827 325.889 149.619 334.582C148.976 337.098 148.091 339.529 146.758 341.836C141.674 341.369 136.6 341.283 131.526 341.884C130.841 341.955 130.146 341.965 129.408 341.984Z" fill="#DBFF9E"/>
<path d="M143.397 216.94C142.183 216.992 141.027 217.011 139.861 216.849C138.885 216.716 138.071 216.339 137.343 215.753C136.952 215.438 136.743 215.477 136.41 215.786C135.205 216.902 133.763 217.44 132.126 217.435C131.812 217.435 131.497 217.345 131.121 217.297C130.522 216.954 129.893 216.763 129.455 216.268C129.06 215.82 128.732 215.353 128.818 214.709C128.903 214.704 128.989 214.685 128.999 214.7C130.174 217.231 134.572 216.735 136.215 214.99C136.909 214.252 136.919 214.266 137.609 214.99C139.404 216.878 143.459 216.597 144.958 214.471C145.115 214.247 145.244 213.956 145.568 214.137C145.901 214.328 145.706 214.623 145.582 214.838C145.068 215.729 144.43 216.497 143.397 216.94Z" fill="#0A1006"/>
<path d="M131.56 220.607C130.574 220.444 129.629 220.55 128.683 220.547C128.368 220.547 128.259 220.84 128.107 221.044C125.097 225.053 121.231 227.906 116.482 229.526C101.652 234.583 86.0468 224.475 84.5906 208.875C84.338 206.177 84.4765 203.503 85.2753 200.889C85.3024 200.8 85.3051 200.705 85.2943 200.569C85.661 199.915 85.8186 199.204 86.0631 198.533C88.2935 192.412 92.5316 188.045 98.0656 184.809C100.655 183.295 103.534 182.841 106.46 182.613C112.307 182.155 117.604 183.683 122.378 187.068C122.579 187.209 122.772 187.366 123.06 187.44C123.576 187.602 123.883 187.985 124.23 188.295C126.735 190.542 128.803 193.129 130.283 196.164C130.805 197.236 131.261 198.338 131.615 199.478C131.75 199.918 131.97 200.124 132.465 200.108C135.168 200.015 137.874 199.948 140.574 199.828C142.017 199.766 141.713 200.051 142.261 198.56C143.487 195.219 145.35 192.258 147.673 189.57C148.219 188.938 148.801 188.346 149.387 187.757C149.55 187.594 149.719 187.445 149.98 187.355C150.243 187.271 150.428 187.141 150.596 186.984C158.695 179.505 170.2 180.708 176.938 184.592C186.848 190.306 191.806 202.543 188.394 213.305C187.378 216.511 185.677 219.334 183.433 221.837C183.246 222.046 183.012 222.225 182.942 222.561C182.659 222.556 182.523 222.762 182.363 222.914C171.952 232.879 155.766 231.926 146.619 220.8C146.336 220.455 146.043 220.3 145.603 220.33C144.85 220.382 144.09 220.297 143.296 220.447C143.006 220.683 142.701 220.68 142.397 220.68C140.922 220.683 139.447 220.713 137.974 220.672C136.122 220.623 134.274 220.824 132.424 220.792C132.142 220.792 131.848 220.832 131.56 220.607Z" fill="#FF8BCA"/>
<path d="M152.22 218.142C149.528 215.202 147.893 211.812 147.518 207.871C146.925 201.663 149.099 196.53 153.658 192.339C155.736 190.428 158.045 188.94 160.811 188.221C165.858 186.91 170.637 187.556 175.063 190.298C179.817 193.243 182.623 197.545 183.384 203.082C184.256 209.423 182.262 214.825 177.603 219.173C174.726 221.858 171.24 223.356 167.298 223.753C162.514 224.236 158.224 222.974 154.386 220.118C153.611 219.54 152.919 218.867 152.22 218.142Z" fill="#0E0E0E"/>
<path d="M101.418 223.208C97.2808 221.384 94.1891 218.498 92.2711 214.462C89.9211 209.519 89.8967 204.495 92.0836 199.473C93.3361 196.598 95.3627 194.359 97.7263 192.323C100.234 190.16 103.108 188.96 106.319 188.534C110.582 187.969 114.586 188.819 118.229 191.121C122.938 194.096 125.738 198.366 126.496 203.881C127.366 210.222 125.372 215.624 120.713 219.97C117.836 222.654 114.347 224.136 110.408 224.551C107.3 224.88 104.331 224.405 101.418 223.208Z" fill="#0E0E0E"/>
</g>
</svg>

<svg xmlns="http://www.w3.org/2000/svg" width="278" height="362" fill="none"><ellipse cx="139.5" cy="347.5" fill="#000" fill-opacity=".3" rx="70.5" ry="14.5"/><mask id="a" width="278" height="347" x="0" y="0" maskUnits="userSpaceOnUse" style="mask-type:alpha"><path fill="#D9D9D9" d="M0 0h278v347H0z"/></mask><g mask="url(#a)"><path fill="#FFEC00" d="m43.524 71.191 93.651 10.998v83.401l-93.65-9.634V71.191Z"/><path fill="#FFEC00" d="m52.976 63.93 84.2 11.844v89.817l-84.2-10.376V63.93Z"/><path fill="#F5F6F9" d="m64.748 55.942 72.427 12.775v96.873l-72.427-15.134V55.942Z"/><path fill="#FFEC00" d="M230.826 71.191 137.175 82.19v83.401l93.651-9.634V71.191Z"/><path fill="#FFEC00" d="m221.374 63.93-84.2 11.844v89.817l84.2-10.376V63.93Z"/><path fill="#F5F6F9" d="m209.602 55.942-72.426 12.775v96.873l72.426-15.134V55.942Z"/><path stroke="#fff" stroke-linecap="round" stroke-width="2" d="M137.256 76.63v75.749"/><path fill="#FF8BCA" fill-rule="evenodd" d="M80.49 99.546c1.665 1.18 3.209 1.792 4.37 1.717 4.702-.3 15.691-12.629 15.713-26.972.022-14.343-6.976-25.522-15.632-24.969-5.012.32-9.48 4.504-12.358 10.755-3.82-3.185-8.075-4.574-11.99-3.457-6.34 1.807-9.98 9.665-9.714 19.285-4.686-2.263-9.32-2.692-12.916-.766-7.648 4.096-7.715 17.29-.15 29.469 7.566 12.18 23.392 16.862 27.546 14.638 2.415-1.294 4.629-6.924 4.574-13.804 1.945.748 3.618.99 4.736.672 1.777-.507 3.999-2.957 5.82-6.568Z" clip-rule="evenodd"/><path fill="#78D9FF" fill-rule="evenodd" d="M144.907 62.551a14.362 14.362 0 0 1-.964-.667c-1.702 6.168-5.114 10.64-7.603 11.181-4.282.93-17.248-7.295-20.917-20.12-3.669-12.825-.252-24.61 7.631-26.323 3.707-.805 7.743.76 11.359 3.98 2.21-8.673 7.465-14.774 13.595-14.774 7.067 0 12.97 8.106 14.387 18.915 1.505-.367 3.004-.414 4.454-.1 7.883 1.713 11.299 13.499 7.63 26.324-3.669 12.824-16.635 21.05-20.917 20.12-3.4-.74-8.526-8.818-8.655-18.536Z" clip-rule="evenodd"/><path fill="#FB7A35" d="M188.832 34.822c-3.001 10.49.758 20.338 3.411 20.915 2.654.577 11.278-6.582 14.279-17.072 3.001-10.49 1.474-19.854-3.411-20.915-4.885-1.062-11.278 6.582-14.279 17.072ZM93.505 23.516c3 10.49-.758 20.339-3.412 20.915-2.653.577-11.277-6.581-14.278-17.071-3.001-10.49-1.474-19.854 3.411-20.916 4.885-1.061 11.278 6.582 14.279 17.072Z"/><path fill="#78D9FF" d="M20.893 121.144c7.251 5.091 10.412 11.465 9.247 12.428-1.165.963-9.76-.917-17.011-6.008-7.251-5.09-11.39-10.655-9.247-12.427 2.144-1.773 9.76.916 17.011 6.007ZM254.231 137.266c-7.251 5.091-10.411 11.465-9.246 12.428 1.164.963 9.76-.917 17.011-6.008 7.251-5.09 11.391-10.654 9.246-12.427-2.144-1.773-9.76.916-17.011 6.007Z"/><path fill="#FF8BCA" d="M58.716 11.55c4.483 6.38 4.484 13.102 2.927 13.766-1.557.664-8.825-2.958-13.309-9.338-4.483-6.38-5.793-12.542-2.926-13.765 2.867-1.222 8.825 2.958 13.308 9.338ZM227.938 30.48c-5.273 6.1-6.122 12.796-4.654 13.547 1.468.752 9.167-2.44 14.439-8.538 5.272-6.1 7.356-12.164 4.654-13.547-2.703-1.383-9.167 2.44-14.439 8.539Z"/><path stroke="#FB7A35" stroke-linecap="round" stroke-width="2" d="m5.308 97.769 39.584 29.947M278 111.862l-47.501 25.543"/><path stroke="#78D9FF" stroke-linecap="round" stroke-width="2" d="m98.775 19.746 26.985 83.14"/><path stroke="#FF8BCA" stroke-linecap="round" stroke-width="2" d="m216.17 38.44-40.217 65.572"/><path fill="#FB7A35" fill-rule="evenodd" d="M214.73 102.992c-1.94 1.073-3.61 1.636-4.725 1.579-4.511-.23-11.956-11.21-8.158-24.09 3.799-12.881 13.61-22.98 21.914-22.556 4.808.245 8.057 3.964 9.202 9.553 4.579-2.892 9.102-4.175 12.628-3.205 5.708 1.57 7.169 8.595 4.348 17.237 5.177-2.071 9.815-2.496 12.814-.796 6.377 3.613 2.928 15.462-7.703 26.464-10.631 11.002-27.331 15.34-30.795 13.377-2.013-1.14-2.675-6.178-.79-12.357-2.098.688-3.794.919-4.801.643-1.6-.441-3.117-2.622-3.934-5.849Z" clip-rule="evenodd"/><path fill="#00CF4B" d="M129.389 341.902c-2.261.362-4.474.786-6.683 1.22-3.237.639-6.388 1.606-9.586 2.398-5.998 1.477-12.081 1.687-18.207 1.234-1.204-.091-2.38-.372-3.422-1.025-1.59-.986-1.738-2.507-.371-3.789.79-.743 1.775-1.172 2.698-1.682-.057-.224-.238-.239-.38-.296-5.27-2.23-8.15-6.348-9.059-11.867-1.499-9.113 3.77-16.277 9.42-19.141.376-.191.533-.462.586-.872.747-5.505 2.56-10.643 5.374-15.428.204-.348.28-.572-.143-.834-8.406-5.257-14.675-12.592-20.01-20.809-3.828-5.891-7.07-12.087-9.197-18.816-2.056-6.501-2.832-13.169-2.36-19.966.204-2.964-.572-5.581-2.176-8.016a19.947 19.947 0 0 1-.98-1.654c-1.738-3.265.238-6.963 3.313-8.026 3.503-1.211 7.02-1.139 10.462.319 1.361.577 2.418 1.535 3.303 2.717a27.42 27.42 0 0 1 3.727 6.791c.395 1.044.862 2.059 1.285 3.075.338-.038.438-.282.586-.458 4.317-5.147 9.505-9.218 15.36-12.449 1.175-.648 1.97-1.473 2.537-2.717 2.299-5.037 4.698-10.032 7.977-14.531 2.199-3.017 4.774-5.639 8.159-7.321 2.532-1.258 5.207-1.816 7.996-1.044 3.38.934 5.298 3.336 6.255 6.601.271.915.466 1.854.709 2.826.466-.181.39-.581.457-.886.49-2.364 1.214-4.599 2.999-6.358 2.146-2.116 4.736-2.803 7.649-2.402 4.541.624 7.835 3.322 10.719 6.639 3.137 3.608 5.298 7.831 7.454 12.049.776 1.52 1.533 3.064 2.175 4.647.457 1.115 1.2 1.815 2.233 2.378 4.003 2.188 7.72 4.785 11.071 7.888a48.994 48.994 0 0 1 4.689 4.942c.142.172.238.51.514.424.214-.071.204-.4.3-.614 1.37-3.122 2.484-6.354 4.493-9.185 1.69-2.378 3.874-3.77 6.692-4.232 2.261-.372 4.532-.343 6.745.295 2.67.773 4.341 2.479 4.741 5.329.181 1.277-.295 2.359-.867 3.427a48.542 48.542 0 0 1-1.708 2.988c-1.052 1.683-1.305 3.551-1.2 5.457.219 3.994.119 7.969-.404 11.935-.8 6.053-2.68 11.762-5.331 17.234-4.275 8.827-9.634 16.896-16.598 23.845-2.294 2.292-4.76 4.375-7.445 6.2-.433.296-.547.491-.228.992 3.256 5.128 5.379 10.685 6.164 16.724.076.577.424.801.862 1.034 8.325 4.442 11.847 15.433 7.634 23.855-1.604 3.207-4.022 5.566-7.349 6.949-.171.071-.333.157-.5.243-.019.009-.023.047-.062.119.791.467 1.647.829 2.376 1.411.509.409.956.867 1.161 1.501.3.92-.119 1.868-1.123 2.512-1.476.943-3.161 1.105-4.841 1.224-5.303.367-10.458-.357-15.527-1.954-3.903-1.229-7.882-2.159-11.976-2.559-1.885-.181-3.76-.372-5.721-.481-.262-.267-.09-.467.019-.677 2.09-3.989 3.146-8.274 3.679-12.726.338-2.826.405-5.667.267-8.493-.19-3.884-.904-7.702-2.018-11.439-.747-2.506-1.785-4.861-3.375-6.963-2.051-2.712-4.76-3.751-8.082-3.336-.081.009-.157.029-.238.029-2.866.004-4.86 1.529-6.474 3.717-1.999 2.707-2.941 5.848-3.755 9.056-1.233 4.871-1.561 9.832-1.304 14.818.261 5.061 1.328 9.965 3.512 14.579.215.424.457.853.348 1.425Z"/><path fill="#DBFF9E" d="M129.408 341.984c-.709-1.683-1.461-3.318-2.013-5.014-2.609-8.055-2.804-16.229-1.09-24.484.652-3.155 1.499-6.239 3.094-9.07.913-1.63 2.084-3.031 3.569-4.17.653-.5 1.405-.767 2.195-.925 1.737-.347 3.489-.476 5.255-.214 2.108.315 3.665 1.525 4.969 3.117 1.794 2.192 2.884 4.742 3.656 7.435 2.446 8.589 2.784 17.23.576 25.923-.643 2.516-1.528 4.947-2.861 7.254-5.084-.467-10.158-.553-15.232.048-.685.071-1.38.081-2.118.1Z"/><path fill="#0A1006" d="M143.397 216.94c-1.214.052-2.37.071-3.536-.091a4.983 4.983 0 0 1-2.518-1.096c-.391-.315-.6-.276-.933.033-1.205 1.116-2.647 1.654-4.284 1.649-.314 0-.629-.09-1.005-.138-.599-.343-1.228-.534-1.666-1.029-.395-.448-.723-.915-.637-1.559.085-.005.171-.024.181-.009 1.175 2.531 5.573 2.035 7.216.29.694-.738.704-.724 1.394 0 1.795 1.888 5.85 1.607 7.349-.519.157-.224.286-.515.61-.334.333.191.138.486.014.701-.514.891-1.152 1.659-2.185 2.102Z"/><path fill="#FF8BCA" d="M131.56 220.607c-.986-.163-1.931-.057-2.877-.06-.315 0-.424.293-.576.497-3.01 4.009-6.876 6.862-11.625 8.482-14.83 5.057-30.435-5.051-31.891-20.651-.253-2.698-.114-5.372.684-7.986a.842.842 0 0 0 .02-.32c.366-.654.524-1.365.768-2.036 2.23-6.121 6.469-10.488 12.003-13.724 2.589-1.514 5.468-1.968 8.394-2.196 5.847-.458 11.144 1.07 15.918 4.455.201.141.394.298.682.372.516.162.823.545 1.17.855 2.505 2.247 4.573 4.834 6.053 7.869a23.496 23.496 0 0 1 1.332 3.314c.135.44.355.646.85.63 2.703-.093 5.409-.16 8.109-.28 1.443-.062 1.139.223 1.687-1.268 1.226-3.341 3.089-6.302 5.412-8.99a35.415 35.415 0 0 1 1.714-1.813c.163-.163.332-.312.593-.402.263-.084.448-.214.616-.371 8.099-7.479 19.604-6.276 26.342-2.392 9.91 5.714 14.868 17.951 11.456 28.713-1.016 3.206-2.717 6.029-4.961 8.532-.187.209-.421.388-.491.724-.283-.005-.419.201-.579.353-10.411 9.965-26.597 9.012-35.744-2.114-.283-.345-.576-.5-1.016-.47-.753.052-1.513-.033-2.307.117-.29.236-.595.233-.899.233-1.475.003-2.95.033-4.423-.008-1.852-.049-3.7.152-5.55.12-.282 0-.576.04-.864-.185Z"/><path fill="#0E0E0E" d="M152.22 218.142c-2.692-2.94-4.327-6.33-4.702-10.271-.593-6.208 1.581-11.341 6.14-15.532 2.078-1.911 4.387-3.399 7.153-4.118 5.047-1.311 9.826-.665 14.252 2.077 4.754 2.945 7.56 7.247 8.321 12.784.872 6.341-1.122 11.743-5.781 16.091-2.877 2.685-6.363 4.183-10.305 4.58-4.784.483-9.074-.779-12.912-3.635-.775-.578-1.467-1.251-2.166-1.976ZM101.418 223.208c-4.137-1.824-7.229-4.71-9.147-8.746-2.35-4.943-2.374-9.967-.187-14.989 1.252-2.875 3.279-5.114 5.642-7.15 2.508-2.163 5.382-3.363 8.593-3.789 4.263-.565 8.267.285 11.91 2.587 4.709 2.975 7.509 7.245 8.267 12.76.87 6.341-1.124 11.743-5.783 16.089-2.877 2.684-6.366 4.166-10.305 4.581-3.108.329-6.077-.146-8.99-1.343Z"/></g></svg>
